packages/foundations/assets/icons/functional/images/maps/map_pin_28.svg

<svg width="28" height="28" viewBox="0 0 28 28" fill="none" xmlns="http://www.w3.org/2000/svg">
<g clip-path="url(#clip0_186_83)">
<path fill-rule="evenodd" clip-rule="evenodd" d="M14 1.75C18.375 1.75 21.875 5.25 21.875 9.57031C21.875 11.2383 21.1921 12.7698 20.4535 14.2733L14.8138 25.7546C14.6628 26.0618 14.3554 26.25 14.0273 26.25C13.6992 26.25 13.3921 26.0617 13.2407 25.7547L7.57514 14.2712C6.83454 12.7702 6.125 11.2383 6.125 9.57031C6.125 5.2227 9.6523 1.75 14 1.75ZM14.0273 3.5273C10.6367 3.5273 7.875 6.26167 7.875 9.6523C7.875 11.0469 8.5267 12.3616 9.13517 13.6104L14.0273 23.6523L18.8928 13.6124C19.4993 12.361 20.125 11.0469 20.125 9.67969C20.125 6.26167 17.4179 3.5273 14.0273 3.5273ZM11.375 9.625C11.375 8.17583 12.5508 7 14 7C15.4492 7 16.625 8.17583 16.625 9.625C16.625 11.0742 15.4492 12.25 14 12.25C12.5508 12.25 11.375 11.0742 11.375 9.625Z" fill="#1A1C1F"/>
</g>
<defs>
<clipPath id="clip0_186_83">
<rect width="28" height="28" fill="white"/>
</clipPath>
</defs>
</svg>

<svg xmlns="http://www.w3.org/2000/svg" width="28" height="28" fill="none"><g clip-path="url(#a)"><path fill="#1A1C1F" fill-rule="evenodd" d="M14 1.75c4.375 0 7.875 3.5 7.875 7.82 0 1.668-.683 3.2-1.422 4.703l-5.64 11.482a.88.88 0 0 1-.786.495.88.88 0 0 1-.786-.495L7.575 14.27c-.74-1.5-1.45-3.033-1.45-4.7C6.125 5.222 9.652 1.75 14 1.75m.027 1.777c-3.39 0-6.152 2.735-6.152 6.125 0 1.395.652 2.71 1.26 3.958l4.892 10.042 4.866-10.04c.606-1.251 1.232-2.565 1.232-3.932 0-3.418-2.707-6.153-6.098-6.153m-2.652 6.098a2.626 2.626 0 1 1 5.251.001 2.626 2.626 0 0 1-5.251-.001" clip-rule="evenodd"/></g><defs><clipPath id="a"><path fill="#fff" d="M0 0h28v28H0z"/></clipPath></defs></svg>
